src/assets/svg/5-store/3-sun.svg

<svg width="349" height="382" viewBox="0 0 349 382" fill="none" xmlns="http://www.w3.org/2000/svg">
<g clip-path="url(#clip0_283_347)">
<path d="M55.0004 0C85.3765 0 109.999 24.6254 109.999 54.9984C109.999 85.3746 85.3769 110 55.0004 110C24.6274 110 0.00195312 85.3746 0.00195312 54.9984C0.00195312 24.6254 24.6274 0 55.0004 0Z" fill="#EFC75E"/>
<path d="M45.6854 45.5935C42.4612 47.845 38.3257 48.7626 34.2252 47.6698C26.8625 45.7038 22.4933 38.1619 24.4663 30.8267C24.889 29.2625 25.6075 27.8704 26.4807 26.6123C23.9129 28.3995 21.9056 31.0121 21.0324 34.2637C19.0594 41.599 23.4282 49.1409 30.7913 51.1069C36.5868 52.6506 42.4648 50.2478 45.6854 45.5935ZM89.3749 41.2522C79.8808 41.2522 72.188 33.5559 72.188 24.0653C72.188 20.1981 73.5114 16.668 75.6703 13.7942C71.4904 16.9292 68.751 21.8789 68.751 27.5024C68.751 36.9965 76.4437 44.6892 85.9378 44.6892C91.5648 44.6892 96.5079 41.9498 99.6429 37.7731C96.7754 39.9288 93.2417 41.2522 89.3749 41.2522ZM39.4602 82.2879C35.7961 81.3047 33.6199 77.5373 34.5996 73.8661L34.9845 72.8487C33.1729 73.6669 31.7156 75.2307 31.1621 77.3036C30.1825 80.9747 32.3582 84.7421 36.0227 85.7253C39.3294 86.6123 42.7016 84.9177 44.056 81.8856C42.6604 82.5181 41.0589 82.7176 39.4602 82.2879ZM72.9406 78.6957C67.4374 77.2175 64.172 71.5666 65.6498 66.0599C65.9145 65.0629 66.358 64.1728 66.8734 63.3373C64.6564 64.6677 62.9308 66.8089 62.2123 69.4973C60.7342 75.0041 64.0031 80.655 69.5032 82.1331C74.0063 83.3398 78.5747 81.3392 80.9017 77.5648C78.5916 78.9502 75.7524 79.4451 72.9406 78.6957Z" fill="#C89147"/>
<path d="M61.8753 103.125C31.5023 103.125 6.87686 78.4996 6.87686 48.1235C6.87686 34.6868 11.7099 22.3876 19.7122 12.8353C7.67111 22.9238 0.00195312 38.0586 0.00195312 54.9984C0.00195312 85.3745 24.6274 110 55.0004 110C71.9398 110 87.0711 102.335 97.1635 90.2933C87.6108 98.2955 75.3156 103.125 61.8753 103.125Z" fill="#D7B354"/>
<path d="M103.049 28.2656C99.113 21.212 93.6612 15.1416 87.1477 10.4357L85.9378 10.312C76.4437 10.312 68.751 18.0083 68.751 27.4989C68.751 36.993 76.4437 44.6857 85.9378 44.6857C95.1708 44.6897 102.64 37.3956 103.049 28.2656Z" fill="#DFA14F"/>
<path d="M72.171 82.4835C77.8681 82.4835 82.4865 77.8651 82.4865 72.168C82.4865 66.4709 77.8681 61.8525 72.171 61.8525C66.4739 61.8525 61.8555 66.4709 61.8555 72.168C61.8555 77.8651 66.4739 82.4835 72.171 82.4835Z" fill="#DFA14F"/>
<path d="M37.9377 24.5395C30.5714 22.5735 23.0055 26.925 21.0324 34.2638C19.0594 41.5991 23.4282 49.141 30.7913 51.107C38.1576 53.0698 45.7266 48.7179 47.6997 41.3827C49.6727 34.0474 45.3004 26.5059 37.9377 24.5395Z" fill="#DFA14F"/>
<path d="M37.8036 85.9592C41.6005 85.9592 44.6785 82.8812 44.6785 79.0843C44.6785 75.2873 41.6005 72.2094 37.8036 72.2094C34.0067 72.2094 30.9287 75.2873 30.9287 79.0843C30.9287 82.8812 34.0067 85.9592 37.8036 85.9592Z" fill="#DFA14F"/>
</g>
<g clip-path="url(#clip1_283_347)">
<path d="M198.994 381.982C281.832 381.982 348.985 314.829 348.985 231.991C348.985 149.153 281.832 82 198.994 82C116.156 82 49.0029 149.153 49.0029 231.991C49.0029 314.829 116.156 381.982 198.994 381.982Z" fill="#FF7900"/>
<path d="M305.058 125.932C363.643 184.502 363.643 279.475 305.058 338.055C246.483 396.649 151.514 396.649 92.9385 338.051" fill="#FF5500"/>
<path d="M198.999 342.396C259.968 342.396 309.394 292.97 309.394 232.001C309.394 171.031 259.968 121.605 198.999 121.605C138.029 121.605 88.6035 171.031 88.6035 232.001C88.6035 292.97 138.029 342.396 198.999 342.396Z" fill="#FF9700"/>
<path d="M199.004 121.6C259.979 121.595 309.399 171.02 309.399 232C309.409 292.975 259.979 342.4 199.004 342.395" fill="#FF7900"/>
<path d="M199.003 305.473C239.581 305.473 272.475 272.578 272.475 232.001C272.475 191.423 239.581 158.528 199.003 158.528C158.426 158.528 125.531 191.423 125.531 232.001C125.531 272.578 158.426 305.473 199.003 305.473Z" fill="#FFAA00"/>
<path d="M147.047 180.049C175.739 151.356 222.258 151.356 250.95 180.049C279.643 208.746 279.643 255.26 250.95 283.952" fill="#FF9700"/>
</g>
<defs>
<clipPath id="clip0_283_347">
<rect width="110" height="110" fill="white"/>
</clipPath>
<clipPath id="clip1_283_347">
<rect width="300" height="300" fill="white" transform="translate(49 82)"/>
</clipPath>
</defs>
</svg>

<svg width="349" height="382" fill="none" xmlns="http://www.w3.org/2000/svg"><g clip-path="url(#a)"><path d="M55 0C85.376 0 110 24.625 110 54.998 109.999 85.375 85.377 110 55 110 24.627 110 .002 85.375.002 54.998.002 24.625 24.627 0 55 0Z" fill="#EFC75E"/><path d="M45.685 45.593c-3.224 2.252-7.36 3.17-11.46 2.077-7.363-1.966-11.732-9.508-9.759-16.843.423-1.565 1.142-2.957 2.015-4.215-2.568 1.788-4.575 4.4-5.449 7.652-1.973 7.335 2.396 14.877 9.76 16.843 5.795 1.544 11.673-.86 14.893-5.514Zm43.69-4.34c-9.494 0-17.187-7.697-17.187-17.188 0-3.867 1.323-7.397 3.482-10.27-4.18 3.134-6.919 8.084-6.919 13.707 0 9.494 7.693 17.187 17.187 17.187 5.627 0 10.57-2.74 13.705-6.916-2.868 2.156-6.401 3.48-10.268 3.48ZM39.46 82.287a6.88 6.88 0 0 1-4.86-8.422l.384-1.017c-1.811.818-3.268 2.382-3.822 4.455a6.88 6.88 0 0 0 4.86 8.421c3.307.887 6.68-.807 8.034-3.84-1.396.633-2.997.833-4.596.403Zm33.48-3.592c-5.503-1.478-8.768-7.13-7.29-12.636.264-.997.708-1.887 1.223-2.723-2.217 1.33-3.942 3.472-4.66 6.16-1.479 5.507 1.79 11.158 7.29 12.636 4.503 1.207 9.072-.794 11.399-4.568a10.274 10.274 0 0 1-7.961 1.13Z" fill="#C89147"/><path d="M61.875 103.125c-30.373 0-54.998-24.625-54.998-55.002 0-13.436 4.833-25.735 12.835-35.288C7.672 22.924.002 38.06.002 54.998.002 85.375 24.627 110 55 110c16.94 0 32.071-7.665 42.163-19.707-9.552 8.002-21.847 12.832-35.288 12.832Z" fill="#D7B354"/><path d="M103.049 28.266c-3.936-7.054-9.388-13.124-15.901-17.83l-1.21-.124c-9.494 0-17.187 7.696-17.187 17.187 0 9.494 7.693 17.187 17.187 17.187 9.233.004 16.702-7.29 17.111-16.42ZM72.171 82.484c5.697 0 10.316-4.619 10.316-10.316 0-5.697-4.619-10.316-10.316-10.316-5.697 0-10.316 4.619-10.316 10.316 0 5.697 4.619 10.316 10.316 10.316ZM37.938 24.54c-7.367-1.966-14.933 2.385-16.906 9.724-1.973 7.335 2.396 14.877 9.76 16.843 7.366 1.963 14.935-2.39 16.908-9.724 1.973-7.336-2.4-14.877-9.762-16.844ZM37.804 85.96a6.875 6.875 0 1 0 0-13.75 6.875 6.875 0 0 0 0 13.75Z" fill="#DFA14F"/></g><g clip-path="url(#b)"><path d="M198.994 381.982c82.838 0 149.991-67.153 149.991-149.991C348.985 149.153 281.832 82 198.994 82c-82.838 0-149.991 67.153-149.991 149.991 0 82.838 67.153 149.991 149.991 149.991Z" fill="#FF7900"/><path d="M305.058 125.932c58.585 58.57 58.585 153.543 0 212.123-58.575 58.594-153.544 58.594-212.12-.004" fill="#F50"/><path d="M198.999 342.396c60.969 0 110.395-49.426 110.395-110.395 0-60.97-49.426-110.396-110.395-110.396-60.97 0-110.395 49.426-110.395 110.396 0 60.969 49.425 110.395 110.395 110.395Z" fill="#FF9700"/><path d="M199.004 121.6c60.975-.005 110.395 49.42 110.395 110.4.01 60.975-49.42 110.4-110.395 110.395" fill="#FF7900"/><path d="M199.003 305.473c40.578 0 73.472-32.895 73.472-73.472 0-40.578-32.894-73.473-73.472-73.473-40.577 0-73.472 32.895-73.472 73.473 0 40.577 32.895 73.472 73.472 73.472Z" fill="#FA0"/><path d="M147.047 180.049c28.692-28.693 75.211-28.693 103.903 0 28.693 28.697 28.693 75.211 0 103.903" fill="#FF9700"/></g><defs><clipPath id="a"><path fill="#fff" d="M0 0h110v110H0z"/></clipPath><clipPath id="b"><path fill="#fff" transform="translate(49 82)" d="M0 0h300v300H0z"/></clipPath></defs></svg>
